Adwaita++-Light/panel/16/indicator-workspaces-2.svg

<svg height="16" width="16" xmlns="http://www.w3.org/2000/svg">
  <path d="m2 0c-1.108 0-2 .892-2 2v9c0 1.108.892 2 2 2h4l-2.2891 2c-1.0374.906-.9473 1 0 1h7.5781c.947 0 .947 0 0-1l-2.289-2h4c1.108 0 2-.892 2-2v-9c0-1.108-.892-2-2-2zm0 2h11v9h-11zm3 1v1h4v2h-3-1v1 3h1 4v-1h-4v-2h4v-1-3z" fill="#444"/>
</svg>

<svg xmlns="http://www.w3.org/2000/svg" width="16" height="16" version="1.1">
 <defs>
  <style id="current-color-scheme" type="text/css">
   .ColorScheme-Text { color:#444444; } .ColorScheme-Highlight { color:#4285f4; }
  </style>
 </defs>
 <path style="fill:currentColor" class="ColorScheme-Text" d="M 2,0 C 0.892,0 0,0.892 0,2 V 11 C 0,12.108 0.892,13 2,13 H 6 L 3.7109,15 C 2.6735,15.906 2.7636,16 3.7109,16 H 11.289 C 12.236,16 12.236,16 11.289,15 L 9,13 H 13 C 14.108,13 15,12.108 15,11 V 2 C 15,0.892 14.108,0 13,0 Z M 2,2 H 13 V 11 H 2 Z M 5,3 V 4 H 9 V 6 H 6 5 V 7 10 H 6 10 V 9 H 6 V 7 H 10 V 6 3 Z"/>
</svg>
